(
var masterTempoClock, broadcastOSCport;

MIDIClient.init;

masterTempoClock = TempoClock.new(1);
broadcastOSCport = NetAddr("localhost", 57120);

masterTempoClock.sched(0, {broadcastOSCport.sendMsg("/masterClockBeat", masterTempoClock.beatDur); 1});

//msg[1] is the new BEAT DURATION (not tempo)
OSCFunc({|msg, time, addr, recvPort|
	masterTempoClock.tempo = 1/msg[1].asFloat;
	broadcastOSCport.sendMsg("/masterClockTempo", msg[1].asFloat)
}, "/uploadTempo");
)